packages/kaspersky-hexa-ui-icons/src/iconsSVGs/32/StatusQuestionOutline.svg

<svg xmlns="http://www.w3.org/2000/svg" width="32" height="32" fill="none" viewBox="0 0 32 32"><path fill="#000" fill-rule="evenodd" d="M30 16c0 7.732-6.268 14-14 14S2 23.732 2 16 8.268 2 16 2s14 6.268 14 14m-2 0c0 6.6274-5.3726 12-12 12S4 22.6274 4 16 9.3726 4 16 4s12 5.3726 12 12m-13.6736-3.3148c.2238-.6734.8593-1.157 1.6052-1.157.949 0 1.6908.7869 1.6908 1.8506 0 .7247-.4588 1.3962-1.2486 1.862-1.3388.7896-1.4499 1.9903-1.4438 2.3692.0089.5522.4638.9926 1.016.9837s.9927-.4638.9837-1.016c.0001 0 .0004-.0835.0488-.1936.0439-.0998.1443-.2631.4114-.4206 1.1807-.6964 2.2325-1.9303 2.2325-3.5847 0-1.9802-1.4581-3.8506-3.6908-3.8506-1.633 0-3.0158 1.0598-3.5031 2.5264-.1742.5241.1095 1.0901.6336 1.2643s1.0902-.1095 1.2643-.6337M17 21.3105c0 .5523-.4477 1-1 1s-1-.4477-1-1 .4477-1 1-1 1 .4478 1 1"/></svg>

<svg width="32" height="32" viewBox="0 0 32 32" fill="none" xmlns="http://www.w3.org/2000/svg">
<path d="M17 21.3105C17 21.8628 16.5523 22.3105 16 22.3105C15.4477 22.3105 15 21.8628 15 21.3105C15 20.7583 15.4477 20.3105 16 20.3105C16.5523 20.3105 17 20.7583 17 21.3105Z" fill="black"/>
<path d="M14.3264 12.6852C14.5502 12.0118 15.1857 11.5282 15.9316 11.5282C16.8806 11.5282 17.6224 12.3151 17.6224 13.3788C17.6224 14.1035 17.1636 14.775 16.3738 15.2408C15.035 16.0304 14.9239 17.2311 14.93 17.61C14.9389 18.1622 15.3938 18.6026 15.946 18.5937C16.4982 18.5848 16.9387 18.1299 16.9297 17.5777C16.9298 17.5777 16.9301 17.4942 16.9785 17.3841C17.0224 17.2843 17.1228 17.121 17.3899 16.9635C18.5706 16.2671 19.6224 15.0332 19.6224 13.3788C19.6224 11.3986 18.1643 9.5282 15.9316 9.5282C14.2986 9.5282 12.9158 10.588 12.4285 12.0546C12.2543 12.5787 12.538 13.1447 13.0621 13.3189C13.5862 13.493 14.1523 13.2094 14.3264 12.6852Z" fill="black"/>
<path fill-rule="evenodd" clip-rule="evenodd" d="M16 30C23.732 30 30 23.732 30 16C30 8.26801 23.732 2 16 2C8.26801 2 2 8.26801 2 16C2 23.732 8.26801 30 16 30ZM16 28C22.6274 28 28 22.6274 28 16C28 9.37258 22.6274 4 16 4C9.37258 4 4 9.37258 4 16C4 22.6274 9.37258 28 16 28Z" fill="black"/>
</svg>
